src/icons/sublime.svg

<svg width="16" height="16" viewBox="0 0 16 16" fill="none" xmlns="http://www.w3.org/2000/svg">
<path d="M8 14C11.3137 14 14 11.3137 14 8C14 4.68629 11.3137 2 8 2C4.68629 2 2 4.68629 2 8C2 11.3137 4.68629 14 8 14Z" fill="#343944"/>
<path d="M11.429 8.03001C11.429 7.92501 11.351 7.86501 11.257 7.89501L4.74304 9.96101C4.69356 9.98026 4.65085 10.0137 4.62026 10.0571C4.58966 10.1005 4.57255 10.1519 4.57104 10.205V12.316C4.57104 12.421 4.64804 12.481 4.74304 12.451L11.257 10.385C11.3064 10.3658 11.349 10.3326 11.3796 10.2894C11.4101 10.2462 11.4274 10.1949 11.429 10.142V8.03001Z" fill="url(#paint0_linear_38_2617)"/>
<path d="M4.57104 7.974C4.57104 8.079 4.64804 8.188 4.74304 8.218L11.257 10.284C11.352 10.314 11.429 10.254 11.429 10.15V8.038C11.4275 7.98492 11.4104 7.93346 11.3798 7.89006C11.3492 7.84667 11.3065 7.81325 11.257 7.794L4.74304 5.728C4.64804 5.698 4.57104 5.758 4.57104 5.863V7.974Z" fill="#FF9800"/>
<path d="M11.429 3.69599C11.429 3.59199 11.351 3.53099 11.257 3.56099L4.74304 5.62699C4.69356 5.64624 4.65085 5.67966 4.62026 5.72306C4.58966 5.76646 4.57255 5.81792 4.57104 5.87099V7.98199C4.57104 8.08699 4.64804 8.14699 4.74304 8.11699L11.257 6.05099C11.3064 6.03181 11.349 5.99855 11.3796 5.95534C11.4101 5.91214 11.4274 5.8609 11.429 5.80799V3.69599Z" fill="#FF9800"/>
<defs>
<linearGradient id="paint0_linear_38_2617" x1="9.62904" y1="11.153" x2="9.74504" y2="9.18101" gradientUnits="userSpaceOnUse">
<stop stop-color="#FF9700"/>
<stop offset="0.53" stop-color="#F48E00"/>
<stop offset="1" stop-color="#CE6E00"/>
</linearGradient>
</defs>
</svg>

<svg xmlns="http://www.w3.org/2000/svg" width="16" height="16" fill="none"><rect width="12" height="12" x="2" y="2" fill="#343944" rx="1.5"/><path fill="url(#a)" d="M11.429 8.03c0-.105-.078-.165-.172-.135L4.743 9.961a.27.27 0 0 0-.172.244v2.111c0 .105.077.165.172.135l6.514-2.066a.27.27 0 0 0 .172-.243z"/><path fill="#FF9800" d="M4.571 7.974c0 .105.077.214.172.244l6.514 2.066c.095.03.172-.03.172-.134V8.038a.27.27 0 0 0-.172-.244L4.743 5.728c-.095-.03-.172.03-.172.135z"/><path fill="#FF9800" d="M11.429 3.696c0-.104-.078-.165-.172-.135L4.743 5.627a.27.27 0 0 0-.172.244v2.111c0 .105.077.165.172.135l6.514-2.066a.27.27 0 0 0 .172-.243z"/><defs><linearGradient id="a" x1="9.629" x2="9.745" y1="11.153" y2="9.181" gradientUnits="userSpaceOnUse"><stop stop-color="#FF9700"/><stop offset=".53" stop-color="#F48E00"/><stop offset="1" stop-color="#CE6E00"/></linearGradient></defs></svg>
